svg/furkot/freepik/all.svg

<svg viewBox="0 0 512 512" xmlns="http://www.w3.org/2000/svg"><path d="m363.546 131.305-81.113-74.983 34.549-31.939 46.564 43.045 72.918-67.416 34.548 31.939zm0 189.849-81.113-74.989 34.549-31.937 46.564 43.045 72.918-67.414 34.548 31.942zm0 189.843-81.113-74.985 34.549-31.939 46.564 43.045 72.918-67.412 34.548 31.937zm-173.601-380.914h-151.082v-128.27h151.082zm0 188.132h-151.082v-125.421h151.082zm0 190.983h-151.082v-128.27h151.082z"/></svg>

<svg xmlns="http://www.w3.org/2000/svg" viewBox="0 0 512 512"><path d="M363.546 131.305L282.433 56.322 316.982 24.383 363.546 67.428 436.464 0.012 471.012 31.951 363.546 131.305ZM363.546 321.154L282.433 246.165 316.982 214.228 363.546 257.273 436.464 189.859 471.012 221.801 363.546 321.154ZM363.546 510.997L282.433 436.012 316.982 404.073 363.546 447.118 436.464 379.706 471.012 411.643 363.546 510.997ZM189.945 130.083L38.863 130.083 38.863 1.813 189.945 1.813 189.945 130.083ZM189.945 318.215L38.863 318.215 38.863 192.794 189.945 192.794 189.945 318.215ZM189.945 509.198L38.863 509.198 38.863 380.928 189.945 380.928 189.945 509.198Z"/></svg>
